!!!!SEGMENT: pl-cz--ii-257--002_kottritsch-franciszek--sonata-2.krn
!!!cenid: 17xx:934
!!!COM: Kottritsch, Franciszek
!!!COM-rismID: pe30040598
!!!CDT: ~1727-1787
!!!CNT:
!!!OTL: Sonata 2
!!!PDT:
!!!AGN: Secular
!!!SMS-siglum: PL-CZ
!!!SMS-shelfmark: II-257
!!!SMS-shelfwork: 002 W
!!!SMS-variant:
!!!SMS-altvar:
!!!NIFC-rismSourceID: 300000622
!!!NIFC-rismChildID: 300000624
!!!NIFC-islandoraID: pl-cz:33346
!!!URL-pdf-islandora: https://repozytorium.nifc.pl/islandora/object/pl-cz%3A33346/datastream/PDF/view
!!!URL-scan:
!!!ONB-nifc:
!!!AIN: 1 cello 2 clars 2 clrno 2 oboe 2 violn
!!!key: B-
**kern	**dynam	**kern	**dynam	**kern	**dynam	**kern	**dynam	**kern	**dynam	**kern	**kern	**kern	**dynam	**kern	**dynam
*part9	*part9	*part8	*part8	*part7	*part7	*part6	*part6	*part5	*part5	*part4	*part3	*part2	*part2	*part1	*part1
*staff9	*	*staff8	*	*staff7	*	*staff6	*	*staff5	*	*staff4	*staff3	*staff2	*	*staff1	*
*I"Baſso.	*	*I"Violino 2.do	*	*I"Violino Primo.	*	*I"Clarino 2 in B.	*	*I"Clarino Primo in B.	*	*I"Clarinetto Secundo. B.	*I"Clarinetto Primo in B.	*I"Oboe 2.da	*	*I"Oboe 1.a	*
*I'B	*	*I'Vn II	*	*I'Vn I	*	*I'Clar II	*	*I'Clar I	*	*I'Cl II in B	*I'Cl I in B	*I'Ob. II	*	*I'Ob. I	*
*Icello	*	*Ivioln	*	*Ivioln	*	*Iclrno	*	*Iclrno	*	*Iclars	*Iclars	*Ioboe	*	*Ioboe	*
*ICstr	*	*ICstr	*	*ICstr	*	*ICbras	*	*ICbras	*	*ICbras	*ICbras	*ICww	*	*ICww	*
*clefF4	*	*clefG2	*	*clefG2	*	*clefG2	*	*clefG2	*	*clefG2	*clefG2	*clefG2	*	*clefG2	*
*	*	*	*	*	*	*ITrd1c2	*	*ITrd1c2	*	*ITrd1c2	*ITrd1c2	*	*	*	*
*k[b-e-]	*	*k[b-e-]	*	*k[b-e-]	*	*k[b-e-]	*	*k[b-e-]	*	*k[b-e-]	*k[b-e-]	*k[b-e-]	*	*k[b-e-]	*
*B-:	*	*B-:	*	*B-:	*	*B-:	*	*B-:	*	*B-:	*B-:	*B-:	*	*B-:	*
*M2/4	*	*M2/4	*	*M2/4	*	*M2/4	*	*M2/4	*	*M2/4	*M2/4	*M2/4	*	*M2/4	*
=1	=1	=1	=1	=1	=1	=1	=1	=1	=1	=1	=1	=1	=1	=1	=1
*2\right	*	*2\right	*	*2\right	*	*2\right	*	*2\right	*	*2\right	*2\right	*2\right	*	*2\right	*
!	!	!LO:TX:t=P:problem=mixed beam	!	!	!	!LO:TX:a:t=2	!	!LO:TX:a:t=2da	!	!	!	!LO:TX:t=P:problem=mixed beam	!	!	!
!	!	!LO:TX:a:t=2.da	!	!LO:TX:a:t=2.	!	!LO:TX:a:t=Adagio	!	!LO:TX:a:t=Adagio	!	!LO:TX:t=P:problem=mixed beam	!	!LO:TX:a:t=2da	!	!LO:TX:a:t=2da	!
!LO:TX:t=P:problem=mixed beam	!	!LO:TX:a:t=Adagio	!	!LO:TX:a:t=Adagio	!	!LO:TX:a:t=in B.	!	!LO:TX:a:t=in B.	!	!LO:TX:a:t=Adagio 2do	!LO:TX:a:t=Adagio 2do.	!LO:TX:a:t=Adagio	!	!LO:TX:a:t=Adagio	!
8.B-\L	.	8.bb-\L	.	8.bb-\L	.	8.B-/L	.	8.b-\L	.	8.bb-\L	8.bb-\L	8.bb-\L	.	8.bb-\L	.
16BB-/K	.	16b-/K	.	16b-\K	.	16B-/K	.	16b-\K	.	16b-/Jk	16b-\Jk	16b-/K	.	16b-\Jk	.
8.BB-/	.	8.b-/	.	8.b-\	.	8.B-/	.	8.b-\	.	8.b-\L	8.b-\L	8.b-/	.	8.b-\L	.
16BB-/Jk	.	16b-/Jk	.	16b-\Jk	.	16B-/Jk	.	16b-\Jk	.	16b-\Jk	16b-\Jk	16b-/Jk	.	16b-\Jk	.
=2	=2	=2	=2	=2	=2	=2	=2	=2	=2	=2	=2	=2	=2	=2	=2
4BB-/	.	4b-\	.	4b-\	.	4B-/	.	4b-\	.	4b-\	4b-\	4b-\	.	4b-\	.
4r	.	16r	.	16r	.	4r	.	4r	.	16r	16r	16r	.	16r	.
.	.	16dd|\LL	.	16dd|\LL	.	.	.	.	.	16dd\LL	16dd\LL	16dd\LL	.	16dd\LL	.
.	.	(16cc\	.	(16cc\	.	.	.	.	.	16cc\	16cc\	16cc\	.	16cc\	.
.	.	16b-\JJ)	.	16b-\JJ)	.	.	.	.	.	16b-\JJ	16b-\JJ	16b-\JJ	.	16b-\JJ	.
=3	=3	=3	=3	=3	=3	=3	=3	=3	=3	=3	=3	=3	=3	=3	=3
!LO:TX:t=P:problem=mixed beam	!	!LO:TX:t=P:problem=mixed beam	!	!LO:TX:t=P:problem=mixed beam	!	!	!	!	!	!LO:TX:t=P:problem=mixed beam	!LO:TX:t=P:problem=mixed beam	!LO:TX:t=P:problem=mixed beam	!	!LO:TX:t=P:problem=mixed beam	!
8.F\L	.	8.ff\L	.	8.ff/L	.	8.f/L	.	8.f/L	.	8.ff\L	8.ff\L	8.ff\L	.	8.ff\L	.
16FF/K	.	16f/K	.	16f/K	.	16F/K	.	16f/K	.	16f/Jk	16f/Jk	16f/K	.	16f/K	.
8.FF/	.	8.f/	.	8.f/	.	8.F/	.	8.f/	.	8.f/L	8.f/L	8.f/	.	8.f/	.
16FF/Jk	.	16f/Jk	.	16f/Jk	.	16F/Jk	.	16f/Jk	.	16f/Jk	16f/Jk	16f/Jk	.	16f/Jk	.
=4	=4	=4	=4	=4	=4	=4	=4	=4	=4	=4	=4	=4	=4	=4	=4
4FF/	.	4f/	.	4f/	.	4F/	.	4f/	.	4f/	4f/	4f/	.	4f/	.
4r	.	16r	.	16r	.	4r	.	4r	.	16r	16r	16r	.	16r	.
.	.	16a/LL	.	16cc|\LL	.	.	.	.	.	16a\LL	16cc\LL	16a/LL	.	16cc\LL	.
.	.	16b-/	.	(16dd\	.	.	.	.	.	16b-\	16dd\	16b-/	.	16dd\	.
.	.	16cc/JJ	.	16ee-\JJ)	.	.	.	.	.	16cc\JJ	16ee-\JJ	16cc/JJ	.	16ee-\JJ	.
!	!	!	!	!	!	!	!	!	!	!	!	!LO:LB:g=original	!	!LO:LB:g=original	!
=5	=5	=5	=5	=5	=5	=5	=5	=5	=5	=5	=5	=5	=5	=5	=5
!LO:TX:t=P:problem=mixed beam	!	!	!	!	!	!	!	!	!	!	!	!	!	!	!
16BB-/LL	.	16b-/KL	.	16dd\LL	.	4d/	.	4b-\	.	4b-\	4dd\	4b-\	.	4dd\	.
16BB-/	.	8f/	.	16dd\	.	.	.	.	.	.	.	.	.	.	.
16G\	.	.	.	16b-\	.	.	.	.	.	.	.	.	.	.	.
16G\JJ	.	8f/	.	16b-\JJ	.	.	.	.	.	.	.	.	.	.	.
16E-\LL	.	.	.	16cc/LL	.	8f/L	.	8cc\L	.	8cc\L	8ee-\L	8cc\L	.	8ee-\L	.
16E-\	.	8f/	.	16cc/	.	.	.	.	.	.	.	.	.	.	.
16F\	.	.	.	16a/	.	8f/J	.	8cc\J	.	8a\J	8cc\J	8a\J	.	8cc\J	.
16F\JJ	.	[16f/Jk	.	16a/JJ	.	.	.	.	.	.	.	.	.	.	.
!LO:LB:g=original	!	!	!	!	!	!	!	!LO:LB:g=original	!	!	!	!	!	!	!
=6	=6	=6	=6	=6	=6	=6	=6	=6	=6	=6	=6	=6	=6	=6	=6
!	!LO:DY:b:t=po.	!	!LO:DY:a:t=po.	!	!LO:DY:a:t=po	!	!	!	!	!	!	!	!	!	!
16B-\LL	p	16f/KL]	p	16dd\LL	p	2r	.	2r	.	8r	8r	8r	.	8r	.
16B-\	.	8f/	.	16dd\	.	.	.	.	.	.	.	.	.	.	.
!	!	!	!	!	!	!	!	!	!	!	!	!	!LO:DY:a:t=po	!	!LO:DY:b:t=po
16G\	.	.	.	16b-\	.	.	.	.	.	8b-\L	8dd\L	8b-\L	p	8dd\L	p
16G\JJ	.	8f/	.	16b-\JJ	.	.	.	.	.	.	.	.	.	.	.
!	!	!	!	!LO:LB:g=original	!	!	!	!	!	!	!	!	!	!	!
16E-\LL	.	.	.	16cc\LL	.	.	.	.	.	8cc\	8ee-\	8cc\	.	8ee-\	.
16E-\	.	8f/	.	16cc\	.	.	.	.	.	.	.	.	.	.	.
16F\	.	.	.	16a\	.	.	.	.	.	8a\J	8cc\J	8a\J	.	8cc\J	.
16F\JJ	.	16f/Jk	.	16a\JJ	.	.	.	.	.	.	.	.	.	.	.
!	!	!	!	!LO:LB:g=original	!	!LO:LB:g=original	!	!	!	!	!	!	!	!	!
=7	=7	=7	=7	=7	=7	=7	=7	=7	=7	=7	=7	=7	=7	=7	=7
!LO:TX:t=P:problem=mixed beam	!LO:DY:b:t=fo	!	!LO:DY:t=for.	!	!LO:DY:a:t=for.	!	!	!	!	!	!	!	!LO:DY:a:t=fo	!	!LO:DY:b:t=fo.
8B-\L	f	16b-/LL	f	16b-/LL	f	8d/L	.	8b-\L	.	4b-\	4b-\	4b-\	f	4b-\	f
.	.	16B-/	.	16B-/	.	.	.	.	.	.	.	.	.	.	.
16BB-/L	.	16d/	.	16d/	.	16d/L	.	16b-\L	.	.	.	.	.	.	.
16B-\JJ	.	16B-/JJ	.	16B-/JJ	.	16d/JJ	.	16b-\JJ	.	.	.	.	.	.	.
16A\LL	.	16f/LL	.	16f/LL	.	8f/L	.	8cc\L	.	4a\	4cc\	4a/	.	4cc\	.
16F\	.	16f/	.	16f/	.	.	.	.	.	.	.	.	.	.	.
16A\	.	16a/	.	16a/	.	16f/L	.	16cc\L	.	.	.	.	.	.	.
16F\JJ	.	16f/JJ	.	16f/JJ	.	16f/JJ	.	16cc\JJ	.	.	.	.	.	.	.
=8	=8	=8	=8	=8	=8	=8	=8	=8	=8	=8	=8	=8	=8	=8	=8
!LO:TX:t=P:problem=mixed beam	!	!	!	!	!	!	!	!	!	!	!	!	!	!	!
8BB-/L	.	16b-\LL	.	16b-\LL	.	8d/	.	8b-\	.	4b-\	4dd\	4b-\	.	4dd\	.
.	.	16b-\	.	16b-\	.	.	.	.	.	.	.	.	.	.	.
8B-\	.	16dd\	.	16dd\	.	8r	.	8r	.	.	.	.	.	.	.
.	.	16b-\JJ	.	16b-\JJ	.	.	.	.	.	.	.	.	.	.	.
8A\	.	16ee-\LL	.	16ee-\LL	.	8f/	.	8cc\	.	4cc\	4ee-\	4cc\	.	4ee-\	.
.	.	16cc\	.	16cc\	.	.	.	.	.	.	.	.	.	.	.
8F\J	.	16a\	.	16a\	.	8r	.	8r	.	.	.	.	.	.	.
.	.	16f\JJ	.	16f\JJ	.	.	.	.	.	.	.	.	.	.	.
=9	=9	=9	=9	=9	=9	=9	=9	=9	=9	=9	=9	=9	=9	=9	=9
8r	.	16b-\LL	.	16b-\LL	.	8d/	.	8b-\	.	4b-\	4dd\	4b-/	.	4dd\	.
.	.	16dd\	.	16dd\	.	.	.	.	.	.	.	.	.	.	.
8B-\L	.	16ff\	.	16ff\	.	8r	.	8r	.	.	.	.	.	.	.
.	.	16dd\JJ	.	16dd\JJ	.	.	.	.	.	.	.	.	.	.	.
8A\	.	16ee-\LL	.	16ee-\LL	.	8f/	.	8cc\	.	4a\	4cc\	4a/	.	4cc\	.
.	.	16cc\	.	16cc\	.	.	.	.	.	.	.	.	.	.	.
8F\J	.	16a\	.	16a\	.	8r	.	8r	.	.	.	.	.	.	.
.	.	16f\JJ	.	16f\JJ	.	.	.	.	.	.	.	.	.	.	.
!	!	!	!	!	!	!	!	!	!	!LO:LB:g=original	!	!	!	!	!
=10	=10	=10	=10	=10	=10	=10	=10	=10	=10	=10	=10	=10	=10	=10	=10
!	!	!	!	!	!	!	!	!	!	!LO:TX:t=P:problem=mixed beam	!	!	!	!	!
16B-\LL	.	16b-/LL	.	16b-/LL	.	8d/	.	8b-\	.	8b-|\L	8b-\L	8b-/L	.	8b-\L	.
16B-\	.	16b-/	.	16b-/	.	.	.	.	.	.	.	.	.	.	.
16D\	.	16d/	.	16d/	.	8r	.	8r	.	16d|/L	16dd|\L	16d/L	.	16dd\L	.
16D\JJ	.	16d/JJ	.	16d/JJ	.	.	.	.	.	16d|/JJ	16dd|\JJ	16d/JJ	.	16dd\JJ	.
16E-\LL	.	16e-/LL	.	16e-/LL	.	8r	.	8r	.	16e-|/LL	16ee-|\LL	16e-/LL	.	16ee-\LL	.
16E-\	.	16e-/	.	16e-/	.	.	.	.	.	16e-|/	16ee-|\	16e-/	.	16ee-\	.
16F\	.	16f/	.	16f/	.	16f/LL	.	16f/LL	.	16f|/	16ff|\	16f/	.	16ff\	.
16F\JJ	.	16f/JJ	.	16f/JJ	.	16f/JJ	.	16f/JJ	.	16f|/JJ	16ff|\JJ	16f/JJ	.	16ff\JJ	.
=11	=11	=11	=11	=11	=11	=11	=11	=11	=11	=11	=11	=11	=11	=11	=11
!LO:TX:t=P:problem=mixed beam	!	!LO:TX:t=P:problem=mixed beam	!	!LO:TX:t=P:problem=mixed beam	!	!	!	!	!	!LO:TX:a:t=Solo	!LO:TX:a:t=Solo	!	!	!	!
16BB-/LL	.	8B-/L	.	8B-/L	.	8d/L	.	8b-\L	.	4b-\	4b-\	4b-\	.	4b-\	.
16B-\	.	.	.	.	.	.	.	.	.	.	.	.	.	.	.
16F\	.	8b-\	.	8b-\	.	8d/	.	8b-\	.	.	.	.	.	.	.
16D\JJ	.	.	.	.	.	.	.	.	.	.	.	.	.	.	.
!LO:LB:g=original	!	!	!	!	!	!	!	!	!	!	!	!	!	!	!
8BB-/	.	8B-/J	.	8B-/J	.	8d/J	.	8b-\J	.	8r	8r	8r	.	8r	.
8r	.	8r	.	8r	.	8r	.	8r	.	8ee-\	8ff\	8ee-\	.	8ff\	.
!	!	!	!	!	!	!	!	!LO:LB:g=original	!	!	!LO:LB:g=original	!LO:LB:g=original	!	!LO:LB:g=original	!
=12	=12	=12	=12	=12	=12	=12	=12	=12	=12	=12	=12	=12	=12	=12	=12
!	!	!	!	!	!	!	!	!	!	!LO:TUP:a	!LO:TUP:a	!	!	!LO:TUP:a	!
*	*	*	*	*	*	*	*	*	*	*	*	*Xtuplet	*	*	*
8r	.	2r	.	2r	.	2r	.	2r	.	(24ee-\LL	(24gg\LL	24ee-\LL	.	24gg\LL	.
.	.	.	.	.	.	.	.	.	.	24ff\	24aa\	24ff\	.	24aa\	.
.	.	.	.	.	.	.	.	.	.	24gg\JJ)	24bb-\JJ)	24gg\JJ	.	24bb-\JJ	.
!	!LO:DY:b:t=po	!	!	!	!	!	!	!	!	!	!	!	!	!	!
8B-\L	p	.	.	.	.	.	.	.	.	4gg\	4bb-\	4gg\	.	4bb-\	.
8c\	.	.	.	.	.	.	.	.	.	.	.	.	.	.	.
8F\J	.	.	.	.	.	.	.	.	.	(16ff\LL	(16aa\LL	16ff\LL	.	16aa\LL	.
.	.	.	.	.	.	.	.	.	.	16ee-\JJ)	16gg\JJ)	16ee-\JJ	.	16gg\JJ	.
!	!	!LO:LB:g=original	!	!LO:LB:g=original	!	!LO:LB:g=original	!	!	!	!	!	!	!	!	!
=13	=13	=13	=13	=13	=13	=13	=13	=13	=13	=13	=13	=13	=13	=13	=13
.	.	.	.	.	.	.	.	.	.	.	.	8qqff/	.	8qqaa/	.
8r	.	8r	.	8r	.	8r	.	8r	.	(16ee-\LL	(16gg\LL	16ee-\LL	.	16gg\LL	.
.	.	.	.	.	.	.	.	.	.	16dd\J)	16ff\J)	16dd\J	.	16ff\J	.
8B-\L	.	(16b-\LL	.	(16dd\LL	.	8b-\L	.	8dd\L	.	8dd\J	8ff\J	8dd\J	.	8ff\J	.
.	.	16cc\JJ)	.	16ee-\JJ)	.	.	.	.	.	.	.	.	.	.	.
8d\	.	16b-/LL	.	16dd\LL	.	8b-\J	.	8dd\J	.	8r	8r	8r	.	8r	.
.	.	16b-/	.	16dd\	.	.	.	.	.	.	.	.	.	.	.
8B-\J	.	16b-/	.	16dd\	.	8r	.	8r	.	8b-\	8dd\	8b-\	.	8dd\	.
.	.	16b-/JJ	.	16dd\JJ	.	.	.	.	.	.	.	.	.	.	.
=14	=14	=14	=14	=14	=14	=14	=14	=14	=14	=14	=14	=14	=14	=14	=14
*	*	*	*	*	*	*	*	*	*	*	*	*	*	*Xtuplet	*
!	!	!	!	!	!	!	!	!	!	!LO:TUP:a	!LO:TUP:a	!	!	!	!
8r	.	2r	.	2r	.	2r	.	2r	.	(24cc\LL	(24ee-\LL	24cc\LL	.	24ee-\LL	.
.	.	.	.	.	.	.	.	.	.	24dd\	24ff\	24dd\	.	24ff\	.
.	.	.	.	.	.	.	.	.	.	24ee-\JJ)	24gg\JJ)	24ee-\JJ	.	24gg\JJ	.
8c\L	.	.	.	.	.	.	.	.	.	4ee-\	4gg\	4ee-\	.	4gg\	.
8A\	.	.	.	.	.	.	.	.	.	.	.	.	.	.	.
8F\J	.	.	.	.	.	.	.	.	.	(16dd\LL	(16ff\LL	16dd\LL	.	16ff\LL	.
.	.	.	.	.	.	.	.	.	.	16cc\JJ)	16ee-\JJ)	16cc\JJ	.	16ee-\JJ	.
=15	=15	=15	=15	=15	=15	=15	=15	=15	=15	=15	=15	=15	=15	=15	=15
.	.	.	.	.	.	.	.	.	.	.	.	8qqdd/	.	8qqee-	.
8r	.	8r	.	8r	.	8r	.	8r	.	(16cc\LL	(16ee-\LL	16cc\LL	.	16ee-\LL	.
.	.	.	.	.	.	.	.	.	.	16b-\J)	16dd\J)	16b-\J	.	16dd\J	.
!LO:TX:t=P:problem=mixed beam	!	!	!	!	!	!	!	!	!	!	!	!	!	!	!
8B-\L	.	(16d/LL	.	(16b-\LL	.	8d/L	.	8b-\L	.	8b-\J	8dd|\J	8b-\J	.	8dd\J	.
.	.	16e-/JJ)	.	16cc\JJ)	.	.	.	.	.	.	.	.	.	.	.
8F\	.	16d/LL	.	16b-\LL	.	8d/J	.	8b-\J	.	4r	8r	4r	.	8r	.
.	.	16d/	.	16b-\	.	.	.	.	.	.	.	.	.	.	.
8BB-/J	.	16d/	.	16b-\	.	8r	.	8r	.	.	8b-\	.	.	8b-\	.
.	.	16d/JJ	.	16b-\JJ	.	.	.	.	.	.	.	.	.	.	.
=16	=16	=16	=16	=16	=16	=16	=16	=16	=16	=16	=16	=16	=16	=16	=16
8FF/L	.	2r	.	2r	.	2r	.	2r	.	8r	(16cc\LL	8r	.	(16cc\LL	.
.	.	.	.	.	.	.	.	.	.	.	16a\)	.	.	16a\)	.
8BB-/	.	.	.	.	.	.	.	.	.	16r	(16b-\	16r	.	16b-|\	.
.	.	.	.	.	.	.	.	.	.	16b-\	16dd\JJ)	16b-\	.	16dd|\JJ	.
!	!	!	!	!	!	!	!	!	!	!	!	!LO:LB:g=original	!	!LO:LB:g=original	!
8AA/	.	.	.	.	.	.	.	.	.	16cc\LL	(16ee-\LL	16cc\LL	.	(16ee-\LL	.
.	.	.	.	.	.	.	.	.	.	16a\	16cc\)	16a\	.	16cc\)	.
8BB-/J	.	.	.	.	.	.	.	.	.	16b-\	(16dd\	16b-\	.	16dd\	.
.	.	.	.	.	.	.	.	.	.	16dd\JJ	16ff\JJ)	16dd\JJ	.	16ff\JJ	.
!	!	!	!	!	!	!	!	!	!	!LO:LB:g=original	!	!	!	!	!
=17	=17	=17	=17	=17	=17	=17	=17	=17	=17	=17	=17	=17	=17	=17	=17
8r	.	2r	.	2r	.	2r	.	2r	.	16ee-\LL	(16gg\LL	16ee-\LL	.	16gg\LL	.
.	.	.	.	.	.	.	.	.	.	16dd\JJ	16ff\)	16dd\JJ	.	16ff\	.
8C/L	.	.	.	.	.	.	.	.	.	16r	(16bb-\	16r	.	16bb-\	.
.	.	.	.	.	.	.	.	.	.	16dd\	16ff\JJ)	16dd\	.	16ff\JJ	.
8C/	.	.	.	.	.	.	.	.	.	16dd\LL	(16ff\LL	(16dd\LL	.	(16ff\LL	.
.	.	.	.	.	.	.	.	.	.	16cc\	16ee-\)	16cc\)	.	16ee-\)	.
8C/J	.	.	.	.	.	.	.	.	.	16cc\	(16ee-\	(16cc\	.	(16ee-\	.
.	.	.	.	.	.	.	.	.	.	16b-\JJ	16dd\JJ)	16b-\JJ)	.	16dd\JJ)	.
!LO:LB:g=original	!	!	!	!	!	!	!	!	!	!	!	!	!	!	!
=18	=18	=18	=18	=18	=18	=18	=18	=18	=18	=18	=18	=18	=18	=18	=18
!LO:TX:t=P:problem=mixed beam	!	!	!	!	!	!	!	!	!	!	!	!	!	!	!
8F\L	.	2r	.	4r	.	8r	.	8r	.	8b-\L	8dd\L	8b-/L	.	8dd\L	.
8FF/J	.	.	.	.	.	8cc\L	.	8cc\L	.	8a\J	8cc\J	8a/J	.	8cc\J	.
4r	.	.	.	16r	.	8cc\	.	8cc\	.	4r	4r	4r	.	4r	.
.	.	.	.	16cc\LL	.	.	.	.	.	.	.	.	.	.	.
.	.	.	.	16ff\	.	8cc\J	.	8cc\J	.	.	.	.	.	.	.
.	.	.	.	16aa\JJ	.	.	.	.	.	.	.	.	.	.	.
=19	=19	=19	=19	=19	=19	=19	=19	=19	=19	=19	=19	=19	=19	=19	=19
*tremolo	*	*	*	*	*	*	*	*	*	*	*	*	*	*	*
*	*	*tremolo	*	*	*	*	*	*	*	*	*	*	*	*	*
!LO:TX:t=P:problem=2\right&colon; global	!	!	!	!	!	!	!	!	!	!LO:TX:a:t=3	!LO:TX:a:t=3	!	!	!	!
16F\LL	.	16a/LL	.	4ccc\	.	2r	.	2r	.	2r	2r	2r	.	2r	.
16F\	.	16a/	.	.	.	.	.	.	.	.	.	.	.	.	.
16F\	.	16a/	.	.	.	.	.	.	.	.	.	.	.	.	.
16F\	.	16a/	.	.	.	.	.	.	.	.	.	.	.	.	.
16F\	.	16a/	.	16bb-\LL	.	.	.	.	.	.	.	.	.	.	.
16F\	.	16a/	.	16aa\	.	.	.	.	.	.	.	.	.	.	.
16F\	.	16a/	.	16gg\	.	.	.	.	.	.	.	.	.	.	.
16F\JJ	.	16a/JJ	.	16ff\JJ	.	.	.	.	.	.	.	.	.	.	.
=20	=20	=20	=20	=20	=20	=20	=20	=20	=20	=20	=20	=20	=20	=20	=20
16G\LL	.	16b-/LL	.	16ff\LL	.	2r	.	2r	.	2r	2r	2r	.	2r	.
16G\	.	16b-/	.	16een\J	.	.	.	.	.	.	.	.	.	.	.
16G\	.	16b-/	.	8ee\J	.	.	.	.	.	.	.	.	.	.	.
16G\	.	16b-/	.	.	.	.	.	.	.	.	.	.	.	.	.
16G\	.	16b-/	.	16r	.	.	.	.	.	.	.	.	.	.	.
16G\	.	16b-/	.	16cc\LL	.	.	.	.	.	.	.	.	.	.	.
16G\	.	16b-/	.	16ee\	.	.	.	.	.	.	.	.	.	.	.
16G\JJ	.	16b-/JJ	.	16gg\JJ	.	.	.	.	.	.	.	.	.	.	.
=21	=21	=21	=21	=21	=21	=21	=21	=21	=21	=21	=21	=21	=21	=21	=21
16C/LL	.	16g/LL	.	4bb-\	.	2r	.	2r	.	2r	2r	2r	.	2r	.
16C/	.	16g/	.	.	.	.	.	.	.	.	.	.	.	.	.
16C/	.	16g/	.	.	.	.	.	.	.	.	.	.	.	.	.
16C/	.	16g/	.	.	.	.	.	.	.	.	.	.	.	.	.
16C/	.	16g/	.	16aa\LL	.	.	.	.	.	.	.	.	.	.	.
16C/	.	16g/	.	16gg\	.	.	.	.	.	.	.	.	.	.	.
16C/	.	16g/	.	16ff\	.	.	.	.	.	.	.	.	.	.	.
16C/JJ	.	16g/JJ	.	16een\JJ	.	.	.	.	.	.	.	.	.	.	.
*	*	*Xtremolo	*	*	*	*	*	*	*	*	*	*	*	*	*
!	!	!	!	!LO:LB:g=original	!	!	!	!	!	!	!	!	!	!	!
=22	=22	=22	=22	=22	=22	=22	=22	=22	=22	=22	=22	=22	=22	=22	=22
*Xtremolo	*	*	*	*	*	*	*	*	*	*	*	*	*	*	*
16F\LL	.	16a/LL	.	16ff\LL	.	2r	.	2r	.	4r	4r	4r	.	4r	.
16F\	.	16a/	.	16een\J	.	.	.	.	.	.	.	.	.	.	.
16F\	.	16a/	.	8ff\J	.	.	.	.	.	.	.	.	.	.	.
16F\JJ	.	16a/JJ	.	.	.	.	.	.	.	.	.	.	.	.	.
16A\LL	.	16cc\LL	.	8r	.	.	.	.	.	8r	8r	8r	.	8r	.
16A\	.	16cc\	.	.	.	.	.	.	.	.	.	.	.	.	.
16A\	.	16cc\	.	16ff\LL	.	.	.	.	.	8a\	8cc\	8a/	.	8cc\	.
16A\JJ	.	16cc\JJ	.	16ee-X\JJ	.	.	.	.	.	.	.	.	.	.	.
!	!	!LO:LB:g=original	!	!	!	!	!	!	!	!	!LO:LB:g=original	!	!	!	!
=23	=23	=23	=23	=23	=23	=23	=23	=23	=23	=23	=23	=23	=23	=23	=23
!LO:TX:t=P:problem=mixed beam	!	!LO:TX:t=P:problem=mixed beam	!	!	!	!	!	!	!	!	!	!	!	!	!
16B-\LL	.	16dd\LL	.	8dd\L	.	16.b-\LL	.	16.dd\LL	.	2b-\	2dd\	2b-/	.	2dd\	.
16BB-/	.	16f/	.	.	.	.	.	.	.	.	.	.	.	.	.
.	.	.	.	.	.	32b-\JK	.	32dd\JK	.	.	.	.	.	.	.
16BB-/	.	16f/	.	8dd\J	.	8b-\J	.	8dd\J	.	.	.	.	.	.	.
16BB-/JJ	.	16b-/JJ	.	.	.	.	.	.	.	.	.	.	.	.	.
.	.	.	.	8qqgg/	.	.	.	.	.	.	.	.	.	.	.
8FF/	.	8a/L	.	8ff\L	.	4r	.	4r	.	.	.	.	.	.	.
8r	.	16cc/L	.	16een\L	.	.	.	.	.	.	.	.	.	.	.
.	.	16b-/JJ	.	16dd\JJ	.	.	.	.	.	.	.	.	.	.	.
!LO:LB:g=original	!	!	!	!	!	!	!	!LO:LB:g=original	!	!	!	!	!	!	!
=24	=24	=24	=24	=24	=24	=24	=24	=24	=24	=24	=24	=24	=24	=24	=24
16F\LL	.	16a/LL	.	8cc\L	.	16.f/LL	.	16.cc\LL	.	2a\	2cc\	2a/	.	2cc\	.
16F\	.	16a/	.	.	.	.	.	.	.	.	.	.	.	.	.
.	.	.	.	.	.	32f/JK	.	32cc\JK	.	.	.	.	.	.	.
16F\	.	16a/	.	8cc\J	.	8f/J	.	8cc\J	.	.	.	.	.	.	.
16F\JJ	.	16a/JJ	.	.	.	.	.	.	.	.	.	.	.	.	.
!	!	!	!	!	!	!LO:TX:a:t=vi	!	!	!	!	!	!	!	!	!
8F\	.	8a/L	.	16aa\LL	.	4r	.	4r	.	.	.	.	.	.	.
.	.	.	.	16ff\	.	.	.	.	.	.	.	.	.	.	.
8r	.	8a/J	.	16cc\	.	.	.	.	.	.	.	.	.	.	.
.	.	.	.	16a\JJ	.	.	.	.	.	.	.	.	.	.	.
!	!	!	!	!	!	!LO:LB:g=original	!	!	!	!	!	!LO:LB:g=original	!	!	!
=25	=25	=25	=25	=25	=25	=25	=25	=25	=25	=25	=25	=25	=25	=25	=25
!	!	!	!	!	!	!LO:TX:a:t=de	!	!	!	!	!	!	!	!	!
8C/L	.	8g/L	.	16b-\LL	.	16.d/LL	.	16.b-\LL	.	2g\	2b-\	2g/	.	2b-\	.
.	.	.	.	16g\	.	.	.	.	.	.	.	.	.	.	.
.	.	.	.	.	.	32d/JK	.	32b-\JK	.	.	.	.	.	.	.
8C/	.	8g/	.	16een\	.	8d/J	.	8b-\J	.	.	.	.	.	.	.
.	.	.	.	16ff\JJ	.	.	.	.	.	.	.	.	.	.	.
8En/	.	8b-/	.	16gg\LL	.	4r	.	4r	.	.	.	.	.	.	.
.	.	.	.	16ee\	.	.	.	.	.	.	.	.	.	.	.
8C/J	.	8g/J	.	16cc\	.	.	.	.	.	.	.	.	.	.	.
.	.	.	.	16b-\JJ	.	.	.	.	.	.	.	.	.	.	.
!	!	!	!	!	!	!	!	!	!	!	!	!	!	!LO:LB:g=original	!
=26	=26	=26	=26	=26	=26	=26	=26	=26	=26	=26	=26	=26	=26	=26	=26
*	*	*	*	*	*	*	*	*	*	*	*	*	*	*	*
!	!	!	!	!	!	!LO:TX:a:t=[sc]	!	!	!	!	!	!	!	!	!
8F\L	.	8a/L	.	16a\LL	.	2r	.	2r	.	8a\L	8a\L	8a/L	.	8a\L	.
.	.	.	.	16cc\	.	.	.	.	.	.	.	.	.	.	.
8F\	.	8a/J	.	16cc\	.	.	.	.	.	8a\J	8ff\J	8a/J	.	8ff\J	.
.	.	.	.	16ff\JJ	.	.	.	.	.	.	.	.	.	.	.
!	!	!	!	!	!	!	!	!	!	!LO:TUP:a	!LO:TUP:a	!	!	!	!
*	*	*Xtuplet	*	*Xtuplet	*	*	*	*	*	*	*	*	*	*	*
8A\	.	24a/LL	.	24ff\LL	.	.	.	.	.	(24a\LL	(24ff\LL	24a/LL	.	24ff\LL	.
.	.	24cc/	.	24een\	.	.	.	.	.	24cc\	24eeX\	24cc/	.	24een\	.
.	.	24b-/JJ	.	24dd\JJ	.	.	.	.	.	24b-\J)J	24dd\JJ)	24b-/JJ	.	24dd\JJ	.
!	!	!	!	!	!	!	!	!	!	!LO:TUP:a	!LO:TUP:a	!	!	!	!
8F\J	.	24a/LL	.	24cc\LL	.	.	.	.	.	(24a\LL	(24cc\LL	24a/LL	.	24cc/LL	.
.	.	24g/	.	24b-\	.	.	.	.	.	24g\	24b-\	24g/	.	24b-/	.
.	.	24f/JJ	.	24a\JJ	.	.	.	.	.	24f\JJ)	24a\JJ)	24f/JJ	.	24a/JJ	.
=27	=27	=27	=27	=27	=27	=27	=27	=27	=27	=27	=27	=27	=27	=27	=27
!LO:TX:t=P:problem=mixed beam	!	!	!	!	!	!LO:TX:a:t=[sc]	!	!	!	!	!	!	!	!	!
8c\L	.	8f/L	.	8a/L	.	4r	.	4r	.	8f/L	8a\L	8f/L	.	8a/L	.
8C/J	.	8en/J	.	8g/J	.	.	.	.	.	8eX/J	8g\J	8en/J	.	8g/J	.
4r	.	4r	.	4r	.	8cc\L	.	8cc\L	.	4r	4r	4r	.	4r	.
!	!	!	!	!	!	!	!	!	!LO:DY:b:t=po	!	!	!	!	!	!
.	.	.	.	.	.	8cc\J	.	8cc\J	p	.	.	.	.	.	.
!	!	!	!	!LO:LB:g=original	!	!	!	!	!	!	!	!	!	!	!
=28	=28	=28	=28	=28	=28	=28	=28	=28	=28	=28	=28	=28	=28	=28	=28
!	!	!	!	!	!	!	!LO:DY:b:t=po	!	!	!	!	!	!	!	!
8r	.	4g/	.	4b-\	.	2cc\	p	[2cc\	.	8g\L	8eeX\L	8g/L	.	8een\L	.
8G\L	.	.	.	.	.	.	.	.	.	16g\L	(16ee\L	16g/L	.	16ee\L	.
.	.	.	.	.	.	.	.	.	.	16b-\JJ	16gg\JJ)	16b-/JJ	.	16gg\JJ	.
8En\	.	8r	.	8r	.	.	.	.	.	16b-\LL	(16gg\LL	16b-/LL	.	(16gg\LL	.
.	.	.	.	.	.	.	.	.	.	16a\	16ff\)	16a/	.	16ff\)	.
8C\J	.	8g/	.	8b-\	.	.	.	.	.	16a\	(16ff\	16a/	.	(16ff\	.
.	.	.	.	.	.	.	.	.	.	16g\JJ	16ee\JJ)	16g/JJ	.	16ee\JJ)	.
!	!	!LO:LB:g=original	!	!	!	!	!	!	!	!	!	!	!	!	!
=29	=29	=29	=29	=29	=29	=29	=29	=29	=29	=29	=29	=29	=29	=29	=29
8F/L	.	16a/LL	.	16a\LL	.	4f/	.	4cc\]	.	4a\	4ff\	4a/	.	4ff\	.
.	.	16a/	.	16cc\	.	.	.	.	.	.	.	.	.	.	.
8C/	.	(16b-/	.	16dd\	.	.	.	.	.	.	.	.	.	.	.
.	.	16a/JJ)	.	16cc\JJ	.	.	.	.	.	.	.	.	.	.	.
8AA/	.	16b-/LL	.	16dd\LL	.	4r	.	4r	.	4r	4r	4r	.	4r	.
.	.	16a/	.	16cc\	.	.	.	.	.	.	.	.	.	.	.
8FF/J	.	16g/	.	16b-\	.	.	.	.	.	.	.	.	.	.	.
.	.	16f/JJ	.	16a\JJ	.	.	.	.	.	.	.	.	.	.	.
!	!	!	!	!	!	!	!	!	!	!LO:LB:g=original	!	!	!	!	!
=30	=30	=30	=30	=30	=30	=30	=30	=30	=30	=30	=30	=30	=30	=30	=30
8r	.	4g/	.	4b-\	.	2cc\	.	2cc\	.	8g\L	8eeX\L	8g/L	.	8een\L	.
8G\L	.	.	.	.	.	.	.	.	.	16g\L	(16ee\L	16g/L	.	16ee\L	.
.	.	.	.	.	.	.	.	.	.	16b-\JJ	16gg\JJ)	16b-/JJ	.	16gg\JJ	.
8En\	.	8r	.	8r	.	.	.	.	.	16b-\LL	(16gg\LL	16b-/LL	.	16gg\LL	.
.	.	.	.	.	.	.	.	.	.	16a\	16ff\)	16a/	.	16ff\	.
8C\J	.	8g/	.	8b-\	.	.	.	.	.	16a\	(16ff\	16a/	.	16ff\	.
.	.	.	.	.	.	.	.	.	.	16g\JJ	16ee\JJ)	16g/JJ	.	16ee\JJ	.
!LO:LB:g=original	!	!	!	!	!	!	!	!	!	!	!	!LO:LB:g=original	!	!LO:LB:g=original	!
=31	=31	=31	=31	=31	=31	=31	=31	=31	=31	=31	=31	=31	=31	=31	=31
!LO:TX:t=P:problem=mixed beam	!	!	!	!	!	!	!	!	!	!	!	!	!	!	!
8F\L	.	4f/	.	16a\LL	.	4f/	.	4cc\	.	4a\	(16ff\LL	4a/	.	16ff\LL	.
.	.	.	.	16cc\	.	.	.	.	.	.	16cc\)	.	.	16cc\	.
8FF/J	.	.	.	16dd\	.	.	.	.	.	.	(16dd\	.	.	16dd\	.
.	.	.	.	16een\JJ	.	.	.	.	.	.	16eeX\JJ)	.	.	16een\JJ	.
4r	.	4r	.	16ff\LL	.	4r	.	4r	.	4r	(16ff\LL	4r	.	16ff\LL	.
.	.	.	.	16ee\	.	.	.	.	.	.	16ee\)	.	.	16ee\	.
.	.	.	.	16ff\	.	.	.	.	.	.	(16ff\	.	.	16ff\	.
.	.	.	.	16gg\JJ	.	.	.	.	.	.	16gg\JJ)	.	.	16gg\JJ	.
!	!	!	!	!	!	!	!	!LO:LB:g=original	!	!	!	!	!	!	!
=32	=32	=32	=32	=32	=32	=32	=32	=32	=32	=32	=32	=32	=32	=32	=32
!LO:TX:t=P:problem=mixed beam	!	!	!	!	!	!	!	!	!	!	!	!	!	!	!
8F\L	.	16ff\LL	.	16aa\LL	.	2r	.	2r	.	(16ff\LL	(16aa\LL	16ff\LL	.	16aa\LL	.
!	!	!	!	!LO:SIC:v:s=een	!	!	!	!	!	!	!	!	!	!	!
.	.	16cc\	.	16ee-\	.	.	.	.	.	16cc\)	16eeX\)	16cc\	.	16een\	.
8FF/J	.	16dd\	.	16ff\	.	.	.	.	.	(16dd\	(16ff\	16dd\	.	16ff\	.
.	.	16een\JJ	.	16gg\JJ	.	.	.	.	.	16eeX\JJ)	16gg\JJ)	16een\JJ	.	16gg\JJ	.
4r	.	16ff\LL	.	16aa\LL	.	.	.	.	.	(16ff\LL	(16aa\LL	16ff\LL	.	16aa\LL	.
.	.	16ee\	.	16gg\	.	.	.	.	.	16ee\)	16gg\)	16ee\	.	16gg\	.
.	.	16ff\	.	16aa\	.	.	.	.	.	(16ff\	(16aa\	16ff\	.	16aa\	.
.	.	16gg\JJ	.	16bb-\JJ	.	.	.	.	.	16gg\JJ)	16bb-\JJ)	16gg\JJ	.	16bb-\JJ	.
!	!	!	!	!	!	!	!	!	!	!	!LO:LB:g=original	!	!	!	!
=33	=33	=33	=33	=33	=33	=33	=33	=33	=33	=33	=33	=33	=33	=33	=33
!LO:TX:t=P:problem=mixed beam	!	!	!	!	!	!	!	!	!	!	!	!	!	!	!
8F\L	.	16ff\LL	.	16aa\LL	.	4r	.	4r	.	8ff\L	8aa\L	8ff\L	.	8aa\L	.
.	.	32een\L	.	32gg\L	.	.	.	.	.	.	.	.	.	.	.
.	.	32dd\JJJ	.	32ff\JJJ	.	.	.	.	.	.	.	.	.	.	.
8B-\	.	32cc/LLL	.	32een\LLL	.	.	.	.	.	16r	16r	16r	.	16r	.
.	.	32b-/	.	32dd\	.	.	.	.	.	.	.	.	.	.	.
.	.	32a/	.	32cc\	.	.	.	.	.	16b-\Jk	16gg\Jk	16b-\Jk	.	16gg\Jk	.
.	.	32g/JJJ	.	32b-\JJJ	.	.	.	.	.	.	.	.	.	.	.
8c\	.	8f/L	.	8a/L	.	8f/L	.	8cc\L	.	8a\L	8ff\L	8a/L	.	8ff\L	.
8C/J	.	8en/J	.	8g/J	.	8cc/J	.	8cc\J	.	8g\J	8eeX\J	8g/J	.	8een\J	.
!	!	!	!	!LO:LB:g=original	!	!	!	!	!	!	!	!	!	!	!
=34	=34	=34	=34	=34	=34	=34	=34	=34	=34	=34	=34	=34	=34	=34	=34
8F\L	.	16f/LL	.	16f/LL	.	8f/	.	8cc\	.	4a\	4ff\	4a/	.	4ff\	.
.	.	16a/	.	16cc/	.	.	.	.	.	.	.	.	.	.	.
8F\	.	16g/	.	16b-/	.	8r	.	8r	.	.	.	.	.	.	.
.	.	16f/JJ	.	16a/JJ	.	.	.	.	.	.	.	.	.	.	.
!	!	!LO:LB:g=original	!	!	!	!	!	!	!	!	!	!	!	!	!
!	!	!	!LO:DY:b:t=sfor.	!LO:TX:t=P:sf = sfor.:problem	!LO:DY:b:t=sfor.	!	!	!	!	!	!	!	!	!	!
8En\	.	4g/	sf	4b-/	sf	8cc\L	.	8cc\L	.	16r	16r	16r	.	16r	.
.	.	.	.	.	.	.	.	.	.	16g\LL	16bb-\LL	16g/LL	.	16bb-\LL	.
8C\J	.	.	.	.	.	8cc\J	.	8cc\J	.	16b-\	16gg\	16b-/	.	16gg\	.
.	.	.	.	.	.	.	.	.	.	16g\JJ	16eeX\JJ	16g/JJ	.	16een\JJ	.
!	!	!	!	!	!	!LO:LB:g=original	!	!	!	!	!	!	!	!	!
=35	=35	=35	=35	=35	=35	=35	=35	=35	=35	=35	=35	=35	=35	=35	=35
!LO:TX:t=P:problem=mixed beam	!	!	!	!	!	!	!	!	!	!	!	!	!	!	!
8FF/L	.	16f/LL	.	16a/LL	.	8f/	.	8cc\	.	4a\	4ff\	4a/	.	4ff\	.
.	.	16a/	.	16cc/	.	.	.	.	.	.	.	.	.	.	.
8F\	.	16g/	.	16b-/	.	8r	.	8r	.	.	.	.	.	.	.
.	.	16f/JJ	.	16a/JJ	.	.	.	.	.	.	.	.	.	.	.
!	!	!	!LO:DY:b:t=sfor.	!LO:TX:t=P:sf = sfor.:problem	!LO:DY:b:t=sfor	!	!	!	!	!	!	!	!	!	!
8En\	.	4g/	sf	4b-/	sf	8cc\L	.	8cc\L	.	16r	16r	16r	.	16r	.
.	.	.	.	.	.	.	.	.	.	16g\LL	16bb-\LL	16g/LL	.	16bb-\LL	.
8C\J	.	.	.	.	.	8cc\J	.	8cc\J	.	16b-\	16gg\	16b-/	.	16gg\	.
!	!	!	!	!	!	!	!	!	!	!	!LO:SIC:v:s=ff#	!	!	!LO:SIC:v:s=een	!
.	.	.	.	.	.	.	.	.	.	16g\JJ	16ee-\JJ	16g/JJ	.	16ee-\JJ	.
=36	=36	=36	=36	=36	=36	=36	=36	=36	=36	=36	=36	=36	=36	=36	=36
*	*	*	*	*tuplet	*	*	*	*	*	*	*	*	*	*	*
!	!	!	!	!LO:TUP:a	!	!	!	!	!	!	!	!	!	!	!
16F\LL	.	8f/L	.	24a\LL	.	8f\L	.	8cc\L	.	8a\L	8ff\L	8a/L	.	8ff\L	.
.	.	.	.	24ff\	.	.	.	.	.	.	.	.	.	.	.
16A\	.	.	.	.	.	.	.	.	.	.	.	.	.	.	.
.	.	.	.	24cc\	.	.	.	.	.	.	.	.	.	.	.
16B-\	.	8b-/	.	24dd\	.	8b-\	.	8dd\	.	8b-\	8gg\	8b-/	.	8gg\	.
.	.	.	.	24bb-\	.	.	.	.	.	.	.	.	.	.	.
16G\JJ	.	.	.	.	.	.	.	.	.	.	.	.	.	.	.
.	.	.	.	24gg\JJ	.	.	.	.	.	.	.	.	.	.	.
*	*	*	*	*Xtuplet	*	*	*	*	*	*	*	*	*	*	*
!LO:TX:t=P:problem=mixed beam	!	!	!	!	!	!	!	!	!	!	!	!	!	!	!
8c\L	.	8a/	.	8ff\L	.	8cc\	.	8cc\	.	8a\	8ff\	8a/	.	8ff\	.
8C/J	.	8g/J	.	8een\J	.	8cc\J	.	8cc\J	.	8g\J	8eeX\J	8g/J	.	8een\J	.
=37	=37	=37	=37	=37	=37	=37	=37	=37	=37	=37	=37	=37	=37	=37	=37
!LO:TX:t=P:problem=mixed beam	!	!	!	!LO:TX:t=P:v:s=een:problem=przednutka SIC	!	!	!	!	!	!	!	!	!	!	!
.	.	8qqg/	.	8qqee-/	.	.	.	.	.	.	8qqee-/	8qqg/	.	8qqee-/	.
8FF\L	.	4a/	.	4ff\	.	8r	.	8r	.	4f/	4ff\	4f/	.	4ff\	.
8F/J	.	.	.	.	.	8f/	.	8cc\	.	.	.	.	.	.	.
4FF/	.	4r	.	4r	.	4f/	.	4cc\	.	4r	4r	4r	.	4r	.
!	!	!	!	!	!	!	!	!	!	!	!	!LO:LB:g=original	!	!LO:LB:g=original	!
=38	=38	=38	=38	=38	=38	=38	=38	=38	=38	=38	=38	=38	=38	=38	=38
*tremolo	*	*	*	*	*	*	*	*	*	*	*	*	*	*	*
16A\LL	.	2r	.	16r	.	2r	.	2r	.	2ff\	2ff\	2ff\	.	2ff\	.
16A\	.	.	.	(16ff\LL	.	.	.	.	.	.	.	.	.	.	.
16A\	.	.	.	16een\	.	.	.	.	.	.	.	.	.	.	.
16A\	.	.	.	16ff\JJ)	.	.	.	.	.	.	.	.	.	.	.
16A\	.	.	.	(16gg\LL	.	.	.	.	.	.	.	.	.	.	.
16A\	.	.	.	16ff\	.	.	.	.	.	.	.	.	.	.	.
16A\	.	.	.	16ee\	.	.	.	.	.	.	.	.	.	.	.
16A\JJ	.	.	.	16ff\JJ)	.	.	.	.	.	.	.	.	.	.	.
!LO:LB:g=original	!	!	!	!	!	!	!	!	!	!	!	!	!	!	!
=39	=39	=39	=39	=39	=39	=39	=39	=39	=39	=39	=39	=39	=39	=39	=39
16B-\LL	.	16een\LL	.	2gg\	.	2r	.	2r	.	2eeX\	2gg\	2een\	.	2gg\	.
16B-\	.	(16ee\	.	.	.	.	.	.	.	.	.	.	.	.	.
16B-\	.	16dd\)	.	.	.	.	.	.	.	.	.	.	.	.	.
16B-\	.	16ee\JJ	.	.	.	.	.	.	.	.	.	.	.	.	.
16B-\	.	(16ff\LL	.	.	.	.	.	.	.	.	.	.	.	.	.
16B-\	.	16ee\	.	.	.	.	.	.	.	.	.	.	.	.	.
16B-\	.	16dd\)	.	.	.	.	.	.	.	.	.	.	.	.	.
16B-\JJ	.	16ee\JJ	.	.	.	.	.	.	.	.	.	.	.	.	.
=40	=40	=40	=40	=40	=40	=40	=40	=40	=40	=40	=40	=40	=40	=40	=40
16c\LL	.	2ee-X\	.	16r	.	2r	.	2r	.	2ee-\	2aa\	2ee-X\	.	2aa\	.
16c\	.	.	.	(16aa\LL	.	.	.	.	.	.	.	.	.	.	.
16c\	.	.	.	16gg\	.	.	.	.	.	.	.	.	.	.	.
16c\	.	.	.	16aa\JJ)	.	.	.	.	.	.	.	.	.	.	.
!	!	!	!	!LO:LB:g=original	!	!	!	!	!	!	!	!	!	!	!
16c\	.	.	.	16bb-\LL	.	.	.	.	.	.	.	.	.	.	.
16c\	.	.	.	16aa\	.	.	.	.	.	.	.	.	.	.	.
16c\	.	.	.	16gg\	.	.	.	.	.	.	.	.	.	.	.
16c\JJ	.	.	.	16aa\JJ	.	.	.	.	.	.	.	.	.	.	.
*Xtremolo	*	*	*	*	*	*	*	*	*	*	*	*	*	*	*
=41	=41	=41	=41	=41	=41	=41	=41	=41	=41	=41	=41	=41	=41	=41	=41
16d\LL	.	16r	.	2bb-\	.	2r	.	2r	.	2dd\	2bb-\	2dd\	.	2bb-\	.
16B-\	.	16dd\LL	.	.	.	.	.	.	.	.	.	.	.	.	.
16F\	.	(16cc\	.	.	.	.	.	.	.	.	.	.	.	.	.
16D\JJ	.	16dd\JJ)	.	.	.	.	.	.	.	.	.	.	.	.	.
!	!	!LO:LB:g=original	!	!	!	!	!	!	!	!	!	!	!	!	!
16B-\LL	.	16ee-\LL	.	.	.	.	.	.	.	.	.	.	.	.	.
16F\	.	(16dd\	.	.	.	.	.	.	.	.	.	.	.	.	.
16D\	.	16cc\)	.	.	.	.	.	.	.	.	.	.	.	.	.
16BB-\JJ	.	16dd\JJ	.	.	.	.	.	.	.	.	.	.	.	.	.
!	!	!	!	!	!	!	!	!LO:LB:g=original	!	!	!	!	!	!	!
=42	=42	=42	=42	=42	=42	=42	=42	=42	=42	=42	=42	=42	=42	=42	=42
16r	.	8ee-\	.	8ccc\	.	[>2A/	.	[>2f/	.	8r	8r	8r	.	8r	.
16F\LL	.	.	.	.	.	.	.	.	.	.	.	.	.	.	.
16A\	.	4cc\	.	4ee-\	.	.	.	.	.	4cc\	4ee-\	4cc\	.	4ee-\	.
16c\JJ	.	.	.	.	.	.	.	.	.	.	.	.	.	.	.
16r	.	.	.	.	.	.	.	.	.	.	.	.	.	.	.
16F\LL	.	.	.	.	.	.	.	.	.	.	.	.	.	.	.
16B-\	.	8b-\	.	8dd\	.	.	.	.	.	8b-\	8dd\	8b-\	.	8dd\	.
16d\JJ	.	.	.	.	.	.	.	.	.	.	.	.	.	.	.
!	!	!	!	!	!	!	!	!	!	!LO:LB:g=original	!	!	!	!	!
=43	=43	=43	=43	=43	=43	=43	=43	=43	=43	=43	=43	=43	=43	=43	=43
!	!	!	!	!	!	!	!	!	!	!	!	!	!	!	!
16r	.	8r	.	24aa\LL	.	2A/]	.	2f/]	.	8r	8r	8r	.	8r	.
.	.	.	.	24bb-\	.	.	.	.	.	.	.	.	.	.	.
16F\LL	.	.	.	.	.	.	.	.	.	.	.	.	.	.	.
.	.	.	.	24ccc\JJ	.	.	.	.	.	.	.	.	.	.	.
16c\	.	4cc\	.	4ee-\	.	.	.	.	.	4cc\	4ee-\	4cc\	.	4ee-\	.
16e-\JJ	.	.	.	.	.	.	.	.	.	.	.	.	.	.	.
16r	.	.	.	.	.	.	.	.	.	.	.	.	.	.	.
16F\LL	.	.	.	.	.	.	.	.	.	.	.	.	.	.	.
16B-\	.	8b-\	.	8dd\	.	.	.	.	.	8b-\	8dd\	8b-\	.	8dd\	.
16d\JJ	.	.	.	.	.	.	.	.	.	.	.	.	.	.	.
=44	=44	=44	=44	=44	=44	=44	=44	=44	=44	=44	=44	=44	=44	=44	=44
8e-\L	.	16a\LL	.	16cc\LL	.	2r	.	2r	.	(16a\LL	(16cc\LL	16a\LL	.	16cc\LL	.
.	.	16cc\	.	16ee-\	.	.	.	.	.	16cc\)	16ee-\)	16cc\	.	16ee-\	.
8c\	.	16ee-\	.	16gg\	.	.	.	.	.	(16ee-\	(16gg\	16ee-\	.	16gg\	.
.	.	16dd\JJ	.	16ff\JJ	.	.	.	.	.	16dd\JJ)	16ff\JJ)	16dd\JJ	.	16ff\JJ	.
8A\	.	(16dd\LL	.	16ff\LL	.	.	.	.	.	(16dd\LL	(16ff\LL	16dd\LL	.	16ff\LL	.
.	.	16cc\)	.	16ee-\	.	.	.	.	.	16cc\)	16ee-\)	16cc\	.	16ee-\	.
8B-\J	.	(16cc\	.	16ee-\	.	.	.	.	.	(16cc\	(16ee-\	16cc\	.	16ee-\	.
.	.	16b-\JJ)	.	16dd\JJ	.	.	.	.	.	16b-\JJ)	16dd\JJ)	16b-\JJ	.	16dd\JJ	.
=45	=45	=45	=45	=45	=45	=45	=45	=45	=45	=45	=45	=45	=45	=45	=45
!LO:TX:t=P:problem=mixed beam	!	!	!	!	!	!LO:TX:t=P:problem=mixed beam	!	!	!	!	!	!	!	!	!
8F\L	.	8b-/L	.	8dd\L	.	8b-\L	.	8dd\L	.	8b-\L	8dd\L	8b-/L	.	8dd\L	.
8FF/J	.	8a/J	.	8cc\J	.	8f/J	.	8cc\J	.	8a\J	8cc\J	8a/J	.	8cc\J	.
16F\LL	.	4r	.	4r	.	16b-\LL	.	16dd\LL	.	4r	4r	4r	.	4r	.
16E-\	.	.	.	.	.	16cc\	.	16ee-\	.	.	.	.	.	.	.
16D\	.	.	.	.	.	16b-\	.	16dd\	.	.	.	.	.	.	.
16C\JJ	.	.	.	.	.	16f\JJ	.	16cc\JJ	.	.	.	.	.	.	.
!LO:LB:g=original	!	!	!	!	!	!LO:LB:g=original	!	!	!	!	!	!	!	!	!
=46	=46	=46	=46	=46	=46	=46	=46	=46	=46	=46	=46	=46	=46	=46	=46
!LO:TX:t=P:problem=mixed beam	!LO:DY:b:t=for.	!LO:TX:t=P:problem=mixed beam	!	!LO:TX:t=P:problem=mixed beam	!	!LO:TX:t=P:problem=mixed beam	!	!	!	!LO:TX:t=P:problem=mixed beam	!LO:TX:t=P:problem=mixed beam	!LO:TX:t=P:problem=mixed beam	!	!LO:TX:t=P:problem=mixed beam	!
8.B-\L	f	8.bb-\L	.	8.bb-\L	.	8.b-\L	.	8.b-\L	.	8.bb-\L	8.bb-\L	8.bb-\L	.	8.bb-\L	.
16BB-/K	.	16b-/K	.	16b-/K	.	16B-/K	.	16b-\K	.	16b-/Jk	16b-/Jk	16b-/K	.	16b-/Jk	.
8.BB-/	.	8.b-/	.	8.b-/	.	8.B-/	.	8.b-\	.	8.b-\L	8.b-\L	8.b-/	.	8.b-/L	.
16BB-/Jk	.	16b-/Jk	.	16b-/Jk	.	16B-/Jk	.	16b-\Jk	.	16b-\Jk	16b-\Jk	16b-/Jk	.	16b-/Jk	.
!	!	!	!	!	!	!	!	!	!	!	!	!	!	!LO:LB:g=original	!
=47	=47	=47	=47	=47	=47	=47	=47	=47	=47	=47	=47	=47	=47	=47	=47
4BB-/	.	4b-\	.	4b-/	.	4B-/	.	4b-\	.	4b-\	4b-\	4b-/	.	4b-\	.
!	!	!	!	!LO:LB:g=original	!	!	!	!	!	!	!LO:LB:g=original	!	!	!	!
4r	.	16r	.	16r	.	4r	.	4r	.	16r	16r	16r	.	16r	.
.	.	16dd\LL	.	16dd\LL	.	.	.	.	.	16dd\LL	16dd\LL	16dd\LL	.	16dd\LL	.
.	.	(16cc\	.	16cc\	.	.	.	.	.	16cc\	16cc\	16cc\	.	16cc\	.
.	.	16b-\JJ)	.	16b-\JJ	.	.	.	.	.	16b-\JJ	16b-\JJ	16b-\JJ	.	16b-\JJ	.
!	!	!LO:LB:g=original	!	!	!	!	!	!	!	!	!	!	!	!	!
=48	=48	=48	=48	=48	=48	=48	=48	=48	=48	=48	=48	=48	=48	=48	=48
!	!	!	!	!	!	!	!	!	!	!	!	!LO:N:vis=16.	!	!	!
!LO:TX:t=P:problem=mixed beam	!	!LO:TX:t=P:problem=mixed beam	!	!LO:TX:t=P:problem=mixed beam	!	!	!	!	!	!LO:TX:t=P:problem=mixed beam	!LO:TX:t=P:problem=mixed beam	!LO:TX:t=P:problem=mixed beam	!	!LO:TX:t=P:problem=mixed beam	!
8.F\L	.	8.ff\L	.	8.ff\L	.	8.f/L	.	8.f/L	.	8.ff\L	8.ff\L	8.ff\L	.	8.ff\L	.
!	!	!	!	!	!	!	!	!	!	!	!	!LO:N:vis=32	!	!	!
16FF/K	.	16f/K	.	16f/K	.	16F/K	.	16f/K	.	16f/Jk	16f/Jk	16f/K	.	16f/K	.
!	!	!	!	!	!	!	!	!	!	!	!	!LO:N:vis=16.	!	!	!
8.FF/	.	8.f/	.	8.f/	.	8.F/	.	8.f/	.	8.f/L	8.f/L	8.f/	.	8.f/	.
!	!	!	!	!	!	!	!	!	!	!	!	!LO:N:vis=32	!	!	!
16FF/Jk	.	16f/Jk	.	16f/Jk	.	16F/Jk	.	16f/Jk	.	16f/Jk	16f/Jk	16f/Jk	.	16f/Jk	.
=49	=49	=49	=49	=49	=49	=49	=49	=49	=49	=49	=49	=49	=49	=49	=49
4FF/	.	4f/	.	4f/	.	4F/	.	4f/	.	4f/	4f/	4f/	.	4f/	.
4r	.	16r	.	16r	.	4r	.	4r	.	16r	16r	16r	.	16r	.
.	.	16a/LL	.	16cc\LL	.	.	.	.	.	16a/LL	16cc\LL	16a/LL	.	16cc\LL	.
.	.	16b-/	.	16dd\	.	.	.	.	.	16b-/	16dd\	16b-/	.	16dd\	.
.	.	16cc/JJ	.	16ee-\JJ	.	.	.	.	.	16cc/JJ	16ee-\JJ	16cc/JJ	.	16ee-\JJ	.
!	!	!	!	!	!	!	!	!LO:LB:g=original	!	!	!	!	!	!	!
=50	=50	=50	=50	=50	=50	=50	=50	=50	=50	=50	=50	=50	=50	=50	=50
!LO:TX:t=P:problem=mixed beam	!	!	!	!	!	!	!	!	!	!	!	!	!	!	!
16BB-/LL	.	16b-/KL	.	16dd\LL	.	4d/	.	4b-\	.	4b-\	4dd\	4b-\	.	4dd\	.
16BB-/	.	8f/	.	16dd\	.	.	.	.	.	.	.	.	.	.	.
16G\	.	.	.	16b-\	.	.	.	.	.	.	.	.	.	.	.
16G\JJ	.	8f/	.	16b-\JJ	.	.	.	.	.	.	.	.	.	.	.
16E-\LL	.	.	.	16cc/LL	.	8f/L	.	8cc\L	.	8cc\L	8ee-\L	8cc\L	.	8ee-\L	.
16E-\	.	8f/	.	16cc/	.	.	.	.	.	.	.	.	.	.	.
16F\	.	.	.	16a/	.	8f/J	.	8cc\J	.	8a\J	8cc\J	8a\J	.	8cc\J	.
16F\JJ	.	[16f/Jk	.	16a/JJ	.	.	.	.	.	.	.	.	.	.	.
=51	=51	=51	=51	=51	=51	=51	=51	=51	=51	=51	=51	=51	=51	=51	=51
!	!LO:DY:b:t=po	!LO:TX:t=P:p = p.:problem	!LO:DY:b:t=p.	!LO:TX:t=P:p = po:problem	!LO:DY:a:t=po	!	!	!	!	!	!	!	!LO:DY:a:t=po	!	!
16B-\LL	p	16f/KL]	p	16dd\LL	p	2r	.	2r	.	8r	8r	8r	p	8r	.
16B-\	.	8f/	.	16dd\	.	.	.	.	.	.	.	.	.	.	.
16G\	.	.	.	16b-\	.	.	.	.	.	8b-\L	8dd\L	8b-\L	.	8dd\L	.
16G\JJ	.	8f/	.	16b-\JJ	.	.	.	.	.	.	.	.	.	.	.
16E-\LL	.	.	.	16cc/LL	.	.	.	.	.	8cc\	8ee-\	8cc\	.	8ee-\	.
16E-\	.	8f/	.	16cc/	.	.	.	.	.	.	.	.	.	.	.
16F\	.	.	.	16a/	.	.	.	.	.	8a\J	8cc\J	8a\J	.	8cc\J	.
16F\JJ	.	16f/Jk	.	16a/JJ	.	.	.	.	.	.	.	.	.	.	.
=52	=52	=52	=52	=52	=52	=52	=52	=52	=52	=52	=52	=52	=52	=52	=52
!	!	!	!	!	!LO:DY:a:t=fo.	!	!	!	!	!	!	!	!	!	!
!LO:TX:t=P:problem=mixed beam	!LO:DY:b:t=for	!LO:TX:t=P:problem=mixed beam	!	!LO:TX:t=P:f = fo.:problem	!	!	!	!	!	!	!	!	!	!	!
16B-\LL	f	16b-\LL	.	16b-\LL	f	4b-\	.	4dd\	.	16b-\LL	16b-\LL	16b-\LL	.	16b-\LL	.
16BB-/	.	16B-/	.	16b-\	.	.	.	.	.	16b-\	16b-\	16b-\	.	16b-\	.
16D/	.	16d/	.	16dd\	.	.	.	.	.	16dd\	16dd\	16dd\	.	16dd\	.
16F/JJ	.	16f/JJ	.	16ff\JJ	.	.	.	.	.	16ff\JJ	16ff\JJ	16ff\JJ	.	16ff\JJ	.
8B-\L	.	16b-\LL	.	16bb-\LL	.	8r	.	8r	.	16bb-\LL	16bb-\LL	16bb-\LL	.	16bb-\LL	.
.	.	16dd\	.	16dd\	.	.	.	.	.	16ff\	16ff\	16ff\	.	16ff\	.
!	!	!	!	!	!	!	!	!	!	!LO:TX:a:t=Solo	!	!	!	!	!
8En\J	.	16cc\	.	16cc\	.	8b-\	.	8dd\	.	16dd\	16dd\	16dd\	.	16dd\	.
.	.	16b-\JJ	.	16b-\JJ	.	.	.	.	.	16b-\JJ	16b-\JJ	16b-\JJ	.	16b-\JJ	.
!LO:LB:g=original	!	!	!	!LO:LB:g=original	!	!	!	!	!	!	!	!	!	!LO:LB:g=original	!
=53	=53	=53	=53	=53	=53	=53	=53	=53	=53	=53	=53	=53	=53	=53	=53
!LO:TX:t=P:problem=mixed beam	!	!LO:TX:t=P:problem=mixed beam	!	!	!	!	!	!	!	!LO:TX:t=P:problem=mixed beam	!LO:TX:t=P:problem=mixed beam	!LO:TX:t=P:problem=mixed beam	!	!	!
8F\L	.	8ff\L	.	8ff\L	.	8f/L	.	8cc\L	.	8ff\L	8ff\L	8ff\L	.	8ff\L	.
8FF/J	.	8f/J	.	8f/J	.	8f/J	.	8cc\J	.	8f/J	8f/J	8f/J	.	8f/J	.
4r	.	4r	.	4r	.	4r	.	4r	.	16a\LL	16cc\LL	16a/LL	.	16cc\LL	.
.	.	.	.	.	.	.	.	.	.	16b-\J	16dd\J	16b-/J	.	16dd\J	.
!	!	!	!	!	!	!	!	!	!	!	!LO:TX:a:B:t=t	!	!	!	!
.	.	.	.	.	.	.	.	.	.	8b-\J	8dd\J	8b-/J	.	8ddt\J	.
!	!	!LO:LB:g=original	!	!	!	!LO:LB:g=original	!	!	!	!	!	!LO:LB:g=original	!	!	!
=54	=54	=54	=54	=54	=54	=54	=54	=54	=54	=54	=54	=54	=54	=54	=54
!	!	!LO:TX:t=P:p = p.:problem	!	!	!LO:DY:b:t=po	!	!	!	!	!	!	!	!	!	!
!	!	!	!LO:DY:b:t=p.	!	!	!	!	!	!	!LO:TUP:a	!LO:TUP:a	!	!	!	!
8F\L	.	8cc\	p	8ee-\	p	2r	.	2r	.	(24cc\LL	(24ee-\LL	24cc\LL	.	24ee-\LL	.
.	.	.	.	.	.	.	.	.	.	24a\	24cc\	24a\	.	24cc\	.
.	.	.	.	.	.	.	.	.	.	24b-\JJ)	24dd\JJ)	24b-\JJ	.	24dd\JJ	.
!	!	!	!	!	!	!	!	!	!	!LO:TUP:a	!LO:TUP:a	!	!	!	!
8A\	.	8r	.	8r	.	.	.	.	.	(24cc\LL	(24ee-\LL	24cc\LL	.	24ee-\LL	.
.	.	.	.	.	.	.	.	.	.	24a\	24cc\	24a\	.	24cc\	.
.	.	.	.	.	.	.	.	.	.	24b-\JJ)	24dd\JJ)	24b-\JJ	.	24dd\JJ	.
!	!	!	!	!	!	!	!	!	!	!LO:LB:g=original	!	!	!	!	!
!	!	!	!	!	!	!	!	!	!	!LO:TUP:a	!LO:TUP:a	!	!	!	!
8c\	.	8cc\	.	8ee-\	.	.	.	.	.	(24cc\LL	(24ee-\LL	24cc\LL	.	24ee-\LL	.
.	.	.	.	.	.	.	.	.	.	24dd\	24ff\	24dd\	.	24ff\	.
.	.	.	.	.	.	.	.	.	.	24ee-\JJ)	24gg\JJ)	24ee-\JJ	.	24gg\JJ	.
!	!	!	!	!	!	!	!	!	!	!LO:TUP:a	!LO:TUP:a	!	!	!	!
8A\J	.	8r	.	8r	.	.	.	.	.	(24ee-\LL	(24gg\LL	24ee-\LL	.	24gg\LL	.
.	.	.	.	.	.	.	.	.	.	24dd\	24ff\	24dd\	.	24ff\	.
.	.	.	.	.	.	.	.	.	.	24cc\JJ)	24ee-\JJ)	24cc\JJ	.	24ee-\JJ	.
=55	=55	=55	=55	=55	=55	=55	=55	=55	=55	=55	=55	=55	=55	=55	=55
8B-\	.	8b-\	.	8dd\	.	16r	.	16r	.	8b-\	8dd\	8b-\	.	8dd\	.
.	.	.	.	.	.	16dd\LL	.	16ff\LL	.	.	.	.	.	.	.
8r	.	8r	.	8r	.	16cc\	.	16ee-\	.	8r	8r	8r	.	8r	.
.	.	.	.	.	.	16b-\JJ	.	16dd\JJ	.	.	.	.	.	.	.
(8A\L	.	(8cc\L	.	(8ee-\L	.	8f/L	.	16cc\LL	.	4r	4r	4r	.	4r	.
.	.	.	.	.	.	.	.	16ee-\J	.	.	.	.	.	.	.
8B-\J)	.	8b-\J)	.	8dd\J)	.	8b-/J	.	8dd\J	.	.	.	.	.	.	.
=56	=56	=56	=56	=56	=56	=56	=56	=56	=56	=56	=56	=56	=56	=56	=56
!	!	!	!	!	!	!	!	!	!	!LO:TUP:a	!LO:TUP:a	!	!	!	!
8F\L	.	8cc\	.	8ee-\	.	2r	.	2r	.	(24cc\LL	(24ee-\LL	24cc\LL	.	24ee-\LL	.
.	.	.	.	.	.	.	.	.	.	24a\	24cc\	24a\	.	24cc\	.
.	.	.	.	.	.	.	.	.	.	24b-\JJ)	24dd\JJ)	24b-\JJ	.	24dd\JJ	.
!	!	!	!	!	!	!	!	!	!	!LO:TUP:a	!LO:TUP:a	!	!	!	!
8A\	.	8r	.	8r	.	.	.	.	.	(24cc\LL	(24ee-\LL	24cc\LL	.	24ee-\LL	.
.	.	.	.	.	.	.	.	.	.	24a\	24cc\	24a\	.	24cc\	.
.	.	.	.	.	.	.	.	.	.	24b-\JJ)	24dd\JJ)	24b-\JJ	.	24dd\JJ	.
!	!	!	!	!	!	!	!	!	!	!	!	!	!	!LO:LB:g=original	!
!	!	!	!	!	!	!	!	!	!	!LO:TUP:a	!LO:TUP:a	!	!	!	!
8c\	.	8cc\	.	8ee-\	.	.	.	.	.	(24cc\LL	(24ee-\LL	24cc\LL	.	24ee-\LL	.
.	.	.	.	.	.	.	.	.	.	24dd\	24ff\	24dd\	.	24ff\	.
.	.	.	.	.	.	.	.	.	.	24ee-\J)J	24gg\JJ)	24ee-\JJ	.	24gg\JJ	.
!	!	!	!	!	!	!	!	!	!	!LO:TUP:a	!LO:TUP:a	!	!	!	!
8A\J	.	8r	.	8r	.	.	.	.	.	(24ee-\LL	(24gg\LL	24ee-\LL	.	24gg\LL	.
.	.	.	.	.	.	.	.	.	.	24dd\	24ff\	24dd\	.	24ff\	.
.	.	.	.	.	.	.	.	.	.	24cc\JJ)	24ee-\JJ)	24cc\JJ	.	24ee-\JJ	.
!	!	!	!	!	!	!	!	!LO:LB:g=original	!	!	!	!	!	!	!
=57	=57	=57	=57	=57	=57	=57	=57	=57	=57	=57	=57	=57	=57	=57	=57
8B-\	.	8b-\	.	8dd\	.	16r	.	16r	.	8b-\	8dd\	8b-\	.	8dd\	.
.	.	.	.	.	.	16dd\LL	.	16ff\LL	.	.	.	.	.	.	.
8r	.	8r	.	8r	.	16cc\	.	16ee-\	.	8r	8r	8r	.	8r	.
.	.	.	.	.	.	16b-\JJ	.	16dd\JJ	.	.	.	.	.	.	.
(8A\L	.	(8cc\L	.	(8ee-\L	.	8f/L	.	16cc\LL	.	4r	4r	4r	.	4r	.
.	.	.	.	.	.	.	.	16ee-\J	.	.	.	.	.	.	.
8B-\J)	.	8b-\J)	.	8dd\J)	.	8b-/J	.	8dd\J	.	.	.	.	.	.	.
!	!	!	!	!	!	!	!	!	!	!	!LO:LB:g=original	!LO:LB:g=original	!	!	!
=58	=58	=58	=58	=58	=58	=58	=58	=58	=58	=58	=58	=58	=58	=58	=58
!LO:TX:t=P:problem=mixed beam	!	!	!	!	!	!	!	!	!	!	!	!	!	!	!
16B-\LL	.	8.dd\L	.	8.bb-\L	.	16.B-/LL	.	16.b-\LL	.	8.dd\L	8.bb-\L	8.dd\L	.	8.bb-\L	.
16BB-/	.	.	.	.	.	.	.	.	.	.	.	.	.	.	.
.	.	.	.	.	.	32B-/JK	.	32b-\JK	.	.	.	.	.	.	.
16BB-/	.	.	.	.	.	8B-/J	.	8b-\J	.	.	.	.	.	.	.
16BB-/JJ	.	32ff\LL	.	32aa\LL	.	.	.	.	.	32ff\LL	32aa\LL	32ff\LL	.	32aa\LL	.
.	.	32ee-\JJJ	.	32gg\JJJ	.	.	.	.	.	32ee-\JJJ	32gg\JJJ	32ee-\JJJ	.	32gg\JJJ	.
*	*	*	*	*	*	*	*	*	*	*tremolo	*	*	*	*	*
*	*	*	*	*	*	*	*	*	*	*	*tremolo	*	*	*	*
*	*	*	*	*	*	*	*	*	*	*	*	*tremolo	*	*	*
8BB-/	.	16dd\LL	.	16ff\LL	.	4r	.	4r	.	16dd\LL	16ff\LL	16dd\LL	.	16ff\LL	.
.	.	16dd\	.	16ff\	.	.	.	.	.	16dd\	16ff\	16dd\	.	16ff\	.
8r	.	16dd\	.	16ff\	.	.	.	.	.	16dd\	16ff\	16dd\	.	16ff\	.
.	.	16dd\JJ	.	16ff\JJ	.	.	.	.	.	16dd\JJ	16ff\JJ	16dd\JJ	.	16ff\JJ	.
!	!	!	!	!LO:LB:g=original	!	!	!	!	!	!	!	!	!	!	!
=59	=59	=59	=59	=59	=59	=59	=59	=59	=59	=59	=59	=59	=59	=59	=59
!LO:TX:t=P:problem=mixed beam	!	!	!	!	!	!	!	!	!	!	!	!	!	!	!
16BB-/LL	.	8.ee-\L	.	8.gg\L	.	16.B-/LL	.	16.b-\LL	.	8.ee-\L	8.gg\L	8.ee-\L	.	8.gg\L	.
16B-\	.	.	.	.	.	.	.	.	.	.	.	.	.	.	.
.	.	.	.	.	.	32B-/JK	.	32b-\JK	.	.	.	.	.	.	.
16BB-/	.	.	.	.	.	8B-/J	.	8b-\J	.	.	.	.	.	.	.
16BB-/JJ	.	32dd\LL	.	32ff\LL	.	.	.	.	.	32dd\LL	32ff\LL	32dd\LL	.	32ff\LL	.
.	.	32cc\JJJ	.	32ee-\JJJ	.	.	.	.	.	32cc\JJJ	32ee-\JJJ	32cc\JJJ	.	32ee-\JJJ	.
8BB-/	.	16b-\LL	.	16dd\LL	.	4r	.	4r	.	16b-\LL	16dd\LL	16b-\LL	.	16dd\LL	.
.	.	16b-\	.	16dd\	.	.	.	.	.	16b-\	16dd\	16b-\	.	16dd\	.
8r	.	16b-\	.	16dd\	.	.	.	.	.	16b-\	16dd\	16b-\	.	16dd\	.
.	.	16b-\JJ	.	16dd\JJ	.	.	.	.	.	16b-\JJ	16dd\JJ	16b-\JJ	.	16dd\JJ	.
*	*	*	*	*	*	*	*	*	*	*	*	*Xtremolo	*	*	*
*	*	*	*	*	*	*	*	*	*	*	*Xtremolo	*	*	*	*
*	*	*	*	*	*	*	*	*	*	*Xtremolo	*	*	*	*	*
!LO:LB:g=original	!	!LO:LB:g=original	!	!	!	!LO:LB:g=original	!	!	!	!	!	!	!	!	!
=60	=60	=60	=60	=60	=60	=60	=60	=60	=60	=60	=60	=60	=60	=60	=60
!LO:TX:t=P:problem=mixed beam	!	!	!	!	!	!	!	!	!	!	!	!	!	!	!
8E-\L	.	16cc\LL	.	16cc\LL	.	4r	.	4r	.	16cc\LL	16cc\LL	16cc\LL	.	16cc\LL	.
.	.	16ee-\	.	16gg\	.	.	.	.	.	16ee-\	16gg\	16ee-\	.	16gg\	.
8E-\	.	16dd\	.	16ff\	.	.	.	.	.	16dd\	16ff\	16dd\	.	16ff\	.
.	.	16cc\JJ	.	16ee-\JJ	.	.	.	.	.	16cc\JJ	16ee-\JJ	16cc\JJ	.	16ee-\JJ	.
8F\	.	8b-/L	.	8dd\L	.	8b-/L	.	8dd\L	.	8b-\L	8dd\L	8b-\L	.	8dd\L	.
8FF/J	.	8a/J	.	8cc\J	.	8f/J	.	8cc\J	.	8a\J	8cc\J	8a\J	.	8cc\J	.
!	!	!	!	!	!	!	!	!	!	!	!	!	!	!LO:LB:g=original	!
=61	=61	=61	=61	=61	=61	=61	=61	=61	=61	=61	=61	=61	=61	=61	=61
4BB-/	.	4b-\	.	4b-\	.	16B-/LL	.	[2b-\	.	4b-\	4b-\	4b-\	.	4b-\	.
.	.	.	.	.	.	16B-/	.	.	.	.	.	.	.	.	.
.	.	.	.	.	.	16B-/	.	.	.	.	.	.	.	.	.
.	.	.	.	.	.	16B-/JJ	.	.	.	.	.	.	.	.	.
!	!	!	!	!	!LO:DY:b:t=sfor.	!	!	!	!	!	!	!	!	!	!
16r	.	16r	.	4aa-X\	sf	8B-/	.	.	.	4b-\	4dd\	[4b-\	.	4dd\	.
16BB-/LL	.	(16dd\LL	.	.	.	.	.	.	.	.	.	.	.	.	.
16C/	.	16ee-\	.	.	.	8r	.	.	.	.	.	.	.	.	.
16D/JJ	.	16ff\JJ)	.	.	.	.	.	.	.	.	.	.	.	.	.
=62	=62	=62	=62	=62	=62	=62	=62	=62	=62	=62	=62	=62	=62	=62	=62
!LO:TX:t=P:problem=mixed beam	!	!LO:TX:t=P:problem=mixed beam	!	!	!	!	!	!	!	!	!	!	!	!	!
8E-\L	.	16ee-\LL	.	16gg\LL	.	8B-/	.	4b-\]	.	4b-\	4ee-\	4b-\]	.	4ee-\	.
.	.	16g/	.	16ee-\	.	.	.	.	.	.	.	.	.	.	.
8E-\	.	16f/	.	16dd\	.	8r	.	.	.	.	.	.	.	.	.
.	.	16e-/JJ	.	16cc\JJ	.	.	.	.	.	.	.	.	.	.	.
8F\	.	8d/L	.	8b-/L	.	8r	.	8r	.	4a\	8dd\L	4a/	.	8dd\L	.
8FF/J	.	8e-/J	.	8an/J	.	8f/	.	8cc\	.	.	8cc\J	.	.	8cc\J	.
!	!	!	!	!	!	!	!	!LO:LB:g=original	!	!	!	!	!	!	!
=63	=63	=63	=63	=63	=63	=63	=63	=63	=63	=63	=63	=63	=63	=63	=63
4BB-/	.	4d/	.	4b-\	.	16B-/LL	.	[2b-\	.	4b-\	4b-\	4b-\	.	4b-\	.
.	.	.	.	.	.	16B-/	.	.	.	.	.	.	.	.	.
.	.	.	.	.	.	16B-/	.	.	.	.	.	.	.	.	.
.	.	.	.	.	.	16B-/JJ	.	.	.	.	.	.	.	.	.
!	!	!	!	!	!LO:DY:b:t=sfor	!	!	!	!	!	!	!	!	!	!
16r	.	16r	.	4aa-X\	sf	8B-/	.	.	.	4b-\	4dd\	4b-\	.	4dd\	.
16BB-/LL	.	(16dd\LL	.	.	.	.	.	.	.	.	.	.	.	.	.
16C/	.	16ee-\	.	.	.	8r	.	.	.	.	.	.	.	.	.
16D/JJ	.	16ff\JJ)	.	.	.	.	.	.	.	.	.	.	.	.	.
=64	=64	=64	=64	=64	=64	=64	=64	=64	=64	=64	=64	=64	=64	=64	=64
!LO:TX:t=P:problem=mixed beam	!	!LO:TX:t=P:problem=mixed beam	!	!	!	!	!	!	!	!	!	!	!	!	!
8E-\L	.	16ee-\LL	.	16gg\LL	.	8B-/	.	4b-\]	.	4b-\	4ee-\	4b-\	.	4ee-\	.
.	.	16g/	.	16ee-\	.	.	.	.	.	.	.	.	.	.	.
8E-\	.	16f/	.	16dd\	.	8r	.	.	.	.	.	.	.	.	.
.	.	16e-/JJ	.	16cc\JJ	.	.	.	.	.	.	.	.	.	.	.
!	!	!	!	!LO:LB:g=original	!	!	!	!	!	!	!	!	!	!	!
8F\	.	8d/L	.	8b-/L	.	8r	.	8r	.	4a\	8dd\L	4a/	.	8dd\L	.
8FF/J	.	8e-/J	.	8an/J	.	8f/	.	8cc\	.	.	8cc\J	.	.	8cc\J	.
!	!	!LO:LB:g=original	!	!	!	!LO:LB:g=original	!	!	!	!	!	!	!	!	!
=65	=65	=65	=65	=65	=65	=65	=65	=65	=65	=65	=65	=65	=65	=65	=65
!LO:TX:t=P:problem=mixed beam	!	!	!	!	!	!	!	!	!	!LO:TX:t=P:problem=mixed beam 	!	!	!	!	!
8BB-/L	.	8d/L	.	8b-\L	.	8d/L	.	8b-\L	.	8b-\L	8b-\L	8b-/L	.	8b-\L	.
8B-\	.	16.d/L	.	16.b-\L	.	8d/	.	8b-\	.	16d/L	16.b-\L	16.d/L	.	16.b-\L	.
.	.	.	.	.	.	.	.	.	.	16e-/JJ	.	.	.	.	.
.	.	32e-/JJk	.	32cc\JJk	.	.	.	.	.	.	32cc\JJk	32e-/JJk	.	32cc\JJk	.
8F\	.	16.d/LL	.	16.b-\LL	.	8d/	.	8b-\	.	16d/LL	16.b-\LL	16.d/LL	.	16.b-\LL	.
.	.	.	.	.	.	.	.	.	.	16e-/	.	.	.	.	.
.	.	32e-/K	.	32cc\K	.	.	.	.	.	.	32cc\K	32e-/K	.	32cc\K	.
8D\J	.	16.d/	.	16.b-\	.	8d/J	.	8b-\J	.	16d/	16.b-\	16.d/	.	16.b-\	.
.	.	.	.	.	.	.	.	.	.	16e-/JJ	.	.	.	.	.
.	.	32e-/JJk	.	32cc\JJk	.	.	.	.	.	.	32cc\JJk	32e-/JJk	.	32cc\JJk	.
=66	=66	=66	=66	=66	=66	=66	=66	=66	=66	=66	=66	=66	=66	=66	=66
4BB-/	.	(4e-/	.	(4cc\	.	2d/	.	2b-\	.	(4e-/	4cc\	(4e-/	.	(4cc\	.
4r	.	8d/)	.	8b-\)	.	.	.	.	.	8d/)	8b-\	8d/)	.	8b-\)	.
.	.	8r	.	8r	.	.	.	.	.	8r	8r	8r	.	8r	.
==	==	==	==	==	==	==	==	==	==	==	==	==	==	==	==
*-	*-	*-	*-	*-	*-	*-	*-	*-	*-	*-	*-	*-	*-	*-	*-
!!!RDF**kern: > = above
!!!RDF**kern: | = vertical stroke
!!!system-decoration: [(s1,s2,s3,s4)][(s5,s6)][(s7,s8)][(s9)]
!!!ENC: Marcin Jachim
!!!END: 2020-08-21
!!!ENC: Urszula Świątek
!!!END: 2022-02-25
!!!YEC: Copyright 2022 Narodowy Instytut Fryderyka Chopina (https://polishscores.org)
!!!YEM: License CC-BY-4.0 (https://creativecommons.org/licenses/by/4.0)
